X:1
T:Title
%%score { 1 | 2 }
L:1/8
Q:1/4=100
M:6/8
K:D
V:1 treble nm="Grand Piano"
V:2 bass 
V:1
 [FA][=F^G][^FA] [=GB]2 [FA] | A2 G G3 | [EG][^DF][EG] [CA]2 [EG] | [EG]2 F F3 | B^AB d2 [Ac] | %5
w: H.~L.~Gilmour * * * *|||||
 [Ac]2 B B3 | A3 E2 [EG] | [DF]6 | [Fd][Fd][Fd] [Ec]2 [DB] | [DFA]2 [DA=c] [DGB]3 | %10
w: |||||
 [DFA]3 [A,CE]2 [G,CF] | [F,D]6 |] %12
w: ||
V:2
 [D,D][D,D][D,D] [D,D]2 [D,D] | [A,DF]2 [A,CE][K:bass] [A,CE]3 | %2
 [A,,A,][A,,A,][A,,A,] [A,,E,]2 [C,A,] | [D,A,]2 [D,A,D] [D,A,D]3 | %4
 [G,D][G,CG][G,DG] [G,B,G]2 [G,C] | [G,D]2 [G,DG] [G,DG]3 | [A,DF]3[K:bass] [A,C]2 [C,A,] | %7
 [D,A,]6 | [B,,B,][B,,B,][B,,B,] [F,^A,]2 G, | D,2 F, G,3 | A,3 A,,2 A,, | D,6 |] %12

